packages/core/src/svgs/edu.svg

<svg width="24" height="24" viewBox="0 0 24 24" fill="none" xmlns="http://www.w3.org/2000/svg">
<g clip-path="url(#clip0_31_9729)">
<path d="M0 0H24V24H0V0Z" fill="#F0F3FA"/>
<path d="M5.57153 15.4693V14.4948L11.143 17.3542V13.1623L12.3944 12.3403C12.4128 12.3995 12.4287 12.4582 12.4287 12.5778V18.0549C12.4287 18.9669 11.4605 18.9609 11.0397 18.7192C9.64296 17.9178 6.34253 16.2785 6.02539 16.1358C5.7091 15.9926 5.5771 15.6322 5.57153 15.4693Z" fill="url(#paint0_linear_31_9729)"/>
<path d="M9.42868 13.9073L5.57153 11.7632V13.1895L9.42868 15.2972V13.9073Z" fill="#4273EB"/>
<path d="M5.57153 10.187L11.1447 13.1613L12.397 12.3479C12.397 12.3479 12.2585 12.1991 12.0974 12.098L5.72282 8.65186C5.6071 8.74486 5.57153 8.91028 5.57153 8.978V10.187Z" fill="url(#paint1_linear_31_9729)"/>
<path d="M11.4977 5.26521L5.72314 8.65178L6.954 9.36621L8.97086 8.24721L14.1519 11.2185L15.3116 10.4171C15.24 10.3099 15.0557 10.1466 14.9404 10.0854L10.3367 7.49678L12.0613 6.54535L17.1411 9.47121L18.3274 8.68178C18.243 8.50607 18.0394 8.37535 17.9353 8.31107L12.5439 5.26521C12.0879 5.04792 11.6756 5.16578 11.4981 5.26521H11.4977Z" fill="url(#paint2_linear_31_9729)"/>
<path d="M14.1428 18.5589V11.2239L15.3085 10.416C15.4037 10.5189 15.4285 10.6903 15.4285 10.7524V17.7279L14.1428 18.5589Z" fill="url(#paint3_linear_31_9729)"/>
<path d="M17.1428 16.721V9.47476L18.3085 8.67676C18.4037 8.77833 18.4285 8.94761 18.4285 9.00933V15.5609C18.4285 15.5609 18.4285 15.8352 18.2348 15.9745L17.1428 16.721Z" fill="url(#paint4_linear_31_9729)"/>
</g>
<defs>
<linearGradient id="paint0_linear_31_9729" x1="11.338" y1="12.8838" x2="9.74196" y2="18.2456" gradientUnits="userSpaceOnUse">
<stop stop-color="#7CD872"/>
<stop offset="0.796" stop-color="#4073F3"/>
</linearGradient>
<linearGradient id="paint1_linear_31_9729" x1="5.57153" y1="9.53557" x2="11.2985" y2="12.686" gradientUnits="userSpaceOnUse">
<stop stop-color="#6EC185"/>
<stop offset="1" stop-color="#4373EA"/>
</linearGradient>
<linearGradient id="paint2_linear_31_9729" x1="9.38314" y1="6.4665" x2="15.2961" y2="10.3271" gradientUnits="userSpaceOnUse">
<stop stop-color="#7BDF6A"/>
<stop offset="1" stop-color="#416FF6"/>
</linearGradient>
<linearGradient id="paint3_linear_31_9729" x1="14.7857" y1="10.416" x2="14.7857" y2="18.5589" gradientUnits="userSpaceOnUse">
<stop stop-color="#7CD872"/>
<stop offset="1" stop-color="#4073F3"/>
</linearGradient>
<linearGradient id="paint4_linear_31_9729" x1="17.7857" y1="8.67676" x2="17.7857" y2="16.721" gradientUnits="userSpaceOnUse">
<stop stop-color="#7CD872"/>
<stop offset="1" stop-color="#4073F3"/>
</linearGradient>
<clipPath id="clip0_31_9729">
<rect width="24" height="24" fill="white"/>
</clipPath>
</defs>
</svg>

<svg xmlns="http://www.w3.org/2000/svg" width="24" height="24" fill="none" viewBox="0 0 24 24"><g clip-path="url(#a)"><path fill="#F0F3FA" d="M0 0h24v24H0z"/><path fill="url(#b)" d="M5.572 15.47v-.975l5.571 2.86v-4.193l1.251-.822c.019.06.035.118.035.238v5.477c0 .912-.969.906-1.39.664-1.396-.801-4.696-2.44-5.014-2.583-.316-.143-.448-.504-.453-.667"/><path fill="#4273EB" d="m9.429 13.907-3.857-2.144v1.427l3.857 2.107z"/><path fill="url(#c)" d="m5.572 10.187 5.573 2.974 1.252-.813s-.139-.149-.3-.25L5.723 8.652a.47.47 0 0 0-.151.326z"/><path fill="url(#d)" d="M11.498 5.265 5.723 8.652l1.231.714 2.017-1.119 5.18 2.972 1.16-.802a1.3 1.3 0 0 0-.37-.332l-4.604-2.588 1.724-.952 5.08 2.926 1.186-.79c-.084-.175-.288-.306-.392-.37l-5.391-3.046a1.17 1.17 0 0 0-1.046 0"/><path fill="url(#e)" d="M14.143 18.559v-7.335l1.165-.808c.096.103.12.274.12.336v6.976z"/><path fill="url(#f)" d="M17.143 16.721V9.475l1.165-.798c.096.101.12.27.12.332v6.552s0 .274-.193.414z"/></g><defs><linearGradient id="b" x1="11.338" x2="9.742" y1="12.884" y2="18.246" gradientUnits="userSpaceOnUse"><stop stop-color="#7CD872"/><stop offset=".796" stop-color="#4073F3"/></linearGradient><linearGradient id="c" x1="5.572" x2="11.299" y1="9.536" y2="12.686" gradientUnits="userSpaceOnUse"><stop stop-color="#6EC185"/><stop offset="1" stop-color="#4373EA"/></linearGradient><linearGradient id="d" x1="9.383" x2="15.296" y1="6.466" y2="10.327" gradientUnits="userSpaceOnUse"><stop stop-color="#7BDF6A"/><stop offset="1" stop-color="#416FF6"/></linearGradient><linearGradient id="e" x1="14.786" x2="14.786" y1="10.416" y2="18.559" gradientUnits="userSpaceOnUse"><stop stop-color="#7CD872"/><stop offset="1" stop-color="#4073F3"/></linearGradient><linearGradient id="f" x1="17.786" x2="17.786" y1="8.677" y2="16.721" gradientUnits="userSpaceOnUse"><stop stop-color="#7CD872"/><stop offset="1" stop-color="#4073F3"/></linearGradient><clipPath id="a"><path fill="#fff" d="M0 0h24v24H0z"/></clipPath></defs></svg>
